storage/app/icons/phosphoricons/thin/door-open-thin.svg

<svg xmlns="http://www.w3.org/2000/svg" fill="currentColor" viewBox="0 0 256 256"><path d="M232 220h-28V40a12 12 0 0 0-12-12H64a12 12 0 0 0-12 12v180H24a4 4 0 0 0 0 8h208a4 4 0 0 0 0-8M196 40v180h-24V36h20a4 4 0 0 1 4 4M60 40a4 4 0 0 1 4-4h100v184H60Zm80 92a8 8 0 1 1-8-8 8 8 0 0 1 8 8"/></svg>

<svg xmlns="http://www.w3.org/2000/svg" viewBox="0 0 256 256" fill="currentColor"><path d="M232,220H204V40a12,12,0,0,0-12-12H64A12,12,0,0,0,52,40V220H24a4,4,0,0,0,0,8H232a4,4,0,0,0,0-8ZM196,40V220H172V36h20A4,4,0,0,1,196,40ZM60,40a4,4,0,0,1,4-4H164V220H60Zm80,92a8,8,0,1,1-8-8A8,8,0,0,1,140,132Z"/></svg>
